Origami/48x48/apps/photofilmstrip.svg

<svg width="48" height="48" version="1" xmlns="http://www.w3.org/2000/svg">
 <rect transform="matrix(0,-1,-1,0,0,0)" x="-44" y="-44" width="40" height="40" rx="2" ry="2" style="fill:#4f4f4f"/>
 <path d="m6 4c-1.108 0-2 0.892-2 2v1c0-1.108 0.892-2 2-2h36c1.108 0 2 0.892 2 2v-1c0-1.108-0.892-2-2-2h-36z" style="fill:#ffffff;opacity:.1"/>
 <path d="m6 45c-1.108 0-2-0.892-2-2v-1c0 1.108 0.892 2 2 2h36c1.108 0 2-0.892 2-2v1c0 1.108-0.892 2-2 2h-36z" style="opacity:.2"/>
 <path d="m6 43h4v-4h-4zm0-32h4v-4h-4zm8 32h4v-4h-4zm0-32h4v-4h-4zm8 32h4v-4h-4zm0-32h4v-4h-4zm8 32h4v-4h-4zm0-32h4v-4h-4zm8 32h4v-4h-4zm0-32h4v-4h-4z" style="opacity:.2"/>
 <path d="m6 42h4v-4h-4zm0-32h4v-4h-4zm8 32h4v-4h-4zm0-32h4v-4h-4zm8 32h4v-4h-4zm0-32h4v-4h-4zm8 32h4v-4h-4zm0-32h4v-4h-4zm8 32h4v-4h-4zm0-32h4v-4h-4z" style="fill:#ffffff"/>
 <path d="m 23,24.996025 c -2,3.360272 -6.20732,5.109654 -9.551685,3.241553 C 10.10375,26.369173 9,22.267057 11,18.996026 Z" style="opacity:.2"/>
 <path d="m 23,24 c -2,3.360272 -6.20732,5.109654 -9.551685,3.241553 C 10.10375,25.373148 9,21.271032 11,18.000001 Z" style="fill:#beff4c"/>
 <path d="m16.267578 20.632812c-0.682857 2.019607-0.0053 4.65698 1.716792 7.103672 0.0049-1e-3 0.01563 0 0.01563 0-1.018251-1.921073-1.008121-4.155412 0.01563-6.228672z" style="fill:#2c2c2c"/>
 <path d="m 25,24.996025 c 2,3.360272 6.20732,5.109654 9.551685,3.241553 C 37.89625,26.369173 39,22.267057 37,18.996026 Z" style="opacity:.2"/>
 <path d="m 25,24 c 2,3.360272 6.20732,5.109654 9.551685,3.241553 C 37.89625,25.373148 39,21.271032 37,18.000001 Z" style="fill:#beff4c"/>
 <path d="m31.732422 20.632812c0.682857 2.019607 0.0053 4.65698-1.716792 7.103672-0.0049-1e-3 -0.01563 0-0.01563 0 1.018251-1.921073 1.008121-4.155412-0.01563-6.228672z" style="fill:#2c2c2c"/>
</svg>

<svg xmlns="http://www.w3.org/2000/svg" width="48" height="48" version="1">
 <rect style="fill:#4f4f4f" width="40" height="40" x="-44" y="-44" rx="2" ry="2" transform="matrix(0,-1,-1,0,0,0)"/>
 <path style="opacity:0.1;fill:#ffffff" d="M 6,4 C 4.892,4 4,4.892 4,6 L 4,7 C 4,5.892 4.892,5 6,5 l 36,0 c 1.108,0 2,0.892 2,2 L 44,6 C 44,4.892 43.108,4 42,4 L 6,4 Z"/>
 <path style="opacity:0.2" d="M 6,45 C 4.892,45 4,44.108 4,43 l 0,-1 c 0,1.108 0.892,2 2,2 l 36,0 c 1.108,0 2,-0.892 2,-2 l 0,1 c 0,1.108 -0.892,2 -2,2 L 6,45 Z"/>
 <path style="opacity:0.2" d="m 6,43 h 4 V 39 H 6 Z M 6,11 h 4 V 7 H 6 Z m 8,32 h 4 v -4 h -4 z m 0,-32 h 4 V 7 h -4 z m 8,32 h 4 v -4 h -4 z m 0,-32 h 4 V 7 h -4 z m 8,32 h 4 v -4 h -4 z m 0,-32 h 4 V 7 h -4 z m 8,32 h 4 v -4 h -4 z m 0,-32 h 4 V 7 h -4 z"/>
 <path style="fill:#ffffff" d="m 6,42 h 4 V 38 H 6 Z M 6,10 h 4 V 6 H 6 Z m 8,32 h 4 v -4 h -4 z m 0,-32 h 4 V 6 h -4 z m 8,32 h 4 v -4 h -4 z m 0,-32 h 4 V 6 h -4 z m 8,32 h 4 v -4 h -4 z m 0,-32 h 4 V 6 h -4 z m 8,32 h 4 v -4 h -4 z m 0,-32 h 4 V 6 h -4 z"/>
 <path style="opacity:0.2" d="m 23,24.996025 c -2,3.360272 -6.20732,5.109654 -9.551685,3.241553 C 10.10375,26.369173 9,22.267057 11,18.996026 Z"/>
 <path style="fill:#beff4c" d="m 23,24 c -2,3.360272 -6.20732,5.109654 -9.551685,3.241553 C 10.10375,25.373148 9,21.271032 11,18.000001 Z"/>
 <path style="fill:#2c2c2c" d="m 16.267578,20.632812 c -0.682857,2.019607 -0.0053,4.65698 1.716792,7.103672 0.0049,-0.001 0.01563,0 0.01563,0 -1.018251,-1.921073 -1.008121,-4.155412 0.01563,-6.228672 z"/>
 <path style="opacity:0.2" d="m 25,24.996025 c 2,3.360272 6.20732,5.109654 9.551685,3.241553 C 37.89625,26.369173 39,22.267057 37,18.996026 Z"/>
 <path style="fill:#beff4c" d="m 25,24 c 2,3.360272 6.20732,5.109654 9.551685,3.241553 C 37.89625,25.373148 39,21.271032 37,18.000001 Z"/>
 <path style="fill:#2c2c2c" d="m 31.732422,20.632812 c 0.682857,2.019607 0.0053,4.65698 -1.716792,7.103672 -0.0049,-0.001 -0.01563,0 -0.01563,0 1.018251,-1.921073 1.008121,-4.155412 -0.01563,-6.228672 z"/>
</svg>
